src/wp-content/themes/aquaban/assets/images/tel-2x.svg

<svg width="20" height="20" viewBox="0 0 20 20" fill="none" xmlns="http://www.w3.org/2000/svg">
<path d="M3.84141 0H3.9491C4.47538 0.0226562 4.9903 0.233203 5.36935 0.599609C6.26841 1.49961 7.17061 2.3957 8.06928 3.29531C8.39116 3.6125 8.60457 4.04063 8.64059 4.49219C8.70168 5.12969 8.4123 5.79805 7.87976 6.16367C7.60252 6.36719 7.24892 6.42227 6.96581 6.61602C6.46459 6.94375 6.11452 7.51914 6.11922 8.12422C6.11217 8.31719 6.15955 8.50586 6.21751 8.68828C6.41643 9.41445 6.80644 10.0715 7.25088 10.6734C8.06223 11.7348 9.07015 12.659 10.2406 13.3125C10.7273 13.5625 11.245 13.818 11.8049 13.8188C12.4428 13.8168 13.0787 13.4828 13.4147 12.9367C13.5835 12.6617 13.6438 12.3316 13.8427 12.073C14.2817 11.4566 15.1251 11.191 15.8472 11.3988C16.182 11.4887 16.4804 11.6824 16.7228 11.927C17.5717 12.7727 18.4191 13.6195 19.2676 14.4652C19.4806 14.6734 19.6941 14.893 19.819 15.1676C20.1346 15.8258 20.0249 16.6477 19.5879 17.2258C19.4618 17.4074 19.2931 17.5523 19.1396 17.7098C18.7284 18.1199 18.3169 18.5305 17.9057 18.9406C17.6751 19.1672 17.457 19.4129 17.1774 19.5812C16.7153 19.8715 16.1644 19.9809 15.6252 20H15.3847C14.7394 19.9711 14.1047 19.8312 13.4879 19.6449C12.3465 19.2797 11.2712 18.734 10.2515 18.1094C8.94955 17.3082 7.74153 16.3637 6.60674 15.3422C4.64023 13.5422 2.87382 11.4984 1.54794 9.18047C0.988766 8.18008 0.503601 7.12891 0.219707 6.01562C0.0411478 5.28945 -0.0728014 4.52969 0.0536783 3.78477C0.136693 3.2668 0.354802 2.75977 0.728759 2.38398C1.28754 1.82461 1.84906 1.26758 2.40824 0.708203C2.6052 0.509375 2.8143 0.3125 3.07079 0.192969C3.31004 0.0722656 3.5767 0.0234375 3.84141 0Z" fill="#00AFEA"/>
</svg>

<svg width="20" height="20" fill="none" xmlns="http://www.w3.org/2000/svg"><path d="M3.841 0h.108a2.189 2.189 0 011.42.6c.9.9 1.802 1.796 2.7 2.695.322.317.536.746.572 1.197.06.638-.229 1.306-.761 1.672-.277.203-.631.258-.914.452-.501.328-.851.903-.847 1.508-.007.193.04.382.099.564.198.726.588 1.383 1.033 1.985.811 1.062 1.82 1.986 2.99 2.64.486.25 1.004.505 1.564.506.638-.002 1.274-.336 1.61-.882.169-.275.229-.605.428-.864.439-.616 1.282-.882 2.004-.674.335.09.633.283.876.528.849.846 1.696 1.693 2.545 2.538.213.208.426.428.551.703.316.658.206 1.48-.231 2.058-.126.181-.295.326-.448.484l-1.234 1.23c-.23.227-.449.473-.729.641-.462.29-1.013.4-1.552.419h-.24c-.646-.029-1.28-.169-1.897-.355-1.141-.365-2.217-.911-3.236-1.536-1.302-.8-2.51-1.745-3.645-2.767-1.967-1.8-3.733-3.844-5.06-6.162C.99 8.18.505 7.13.22 6.016.04 5.289-.073 4.53.054 3.785c.083-.518.3-1.025.675-1.401.559-.56 1.12-1.116 1.68-1.676.196-.199.405-.395.662-.515.239-.12.506-.17.77-.193z" fill="#00AFEA"/></svg>
